X: 1
T: My Wife's A Wanton Wee Thing
M: 6/8
L: 1/8
R: jig
K: Dmaj
A|:d2 A dfe|d3 A2B|=cdc cGE|=c3 ^c3|
d2A dfe|d3 A2G|FDF E=CE|1D3 D2 A:|2D3 F2G||
ABA FDF|A3=c3|G=cG ECE|G3 B3|
AdA FDF|A3 a2g|fdf ece|d3 F2G|
AdA FDF|AdA FDF|G=cG E=CE|G=cG E=CE|
AdA FDF|A3 a2g|fdf ece |d3 A3||
